assets/images/fig_4_2_mode_selection.svg

<?xml version="1.0" encoding="UTF-8" standalone="no"?>
<svg
   width="370"
   height="519.93207"
   xml:space="preserve"
   overflow="hidden"
   version="1.1"
   id="svg2022"
   xmlns="http://www.w3.org/2000/svg"
   xmlns:svg="http://www.w3.org/2000/svg"><defs
     id="defs2026" /><g
     transform="matrix(0.26973257,0,0,0.26973257,-16.509908,-17.319025)"
     id="g2020"><path
       d="m 112.5,489.5 198,-132 198,132 -198,132 z"
       stroke="#000000"
       stroke-width="4.58333"
       stroke-miterlimit="8"
       fill="#ffffff"
       fill-rule="evenodd"
       id="path1910" /><text
       font-family="Arial, Arial_MSFontService, sans-serif"
       font-weight="700"
       font-size="41px"
       transform="translate(270.029,480)"
       id="text1912">Run</text><text
       font-family="Arial, Arial_MSFontService, sans-serif"
       font-weight="700"
       font-size="41px"
       transform="translate(188.675,530)"
       id="text1914">Production?</text><text
       font-family="'Arial Narrow', 'Arial Narrow_MSFontService', sans-serif"
       font-weight="700"
       font-stretch="condensed"
       font-size="41px"
       transform="translate(337.027,678)"
       id="text1916">YES</text><rect
       x="123.5"
       y="1824.5"
       width="330"
       height="165"
       stroke="#000000"
       stroke-width="4.58333"
       stroke-miterlimit="8"
       fill="#ffffff"
       id="rect1918" /><text
       font-family="Arial, Arial_MSFontService, sans-serif"
       font-weight="400"
       font-size="37px"
       transform="translate(216.439,1899)"
       id="text1920">SELECT</text><text
       font-family="Arial, Arial_MSFontService, sans-serif"
       font-weight="700"
       font-size="37px"
       transform="translate(169.735,1943)"
       id="text1922">PRIME </text><text
       font-family="Arial, Arial_MSFontService, sans-serif"
       font-weight="400"
       font-size="37px"
       transform="translate(296.35,1943)"
       id="text1924">MODE</text><rect
       x="858.5"
       y="1824.5"
       width="330"
       height="165"
       stroke="#000000"
       stroke-width="4.58333"
       stroke-miterlimit="8"
       fill="#ffffff"
       id="rect1926" /><text
       font-family="Arial, Arial_MSFontService, sans-serif"
       font-weight="400"
       font-size="37px"
       transform="translate(951.066,1899)"
       id="text1928">SELECT</text><text
       font-family="Arial, Arial_MSFontService, sans-serif"
       font-weight="700"
       font-size="37px"
       transform="translate(922.993,1943)"
       id="text1930">RUN </text><text
       font-family="Arial, Arial_MSFontService, sans-serif"
       font-weight="400"
       font-size="37px"
       transform="translate(1012.37,1943)"
       id="text1932">MODE</text><path
       d="M 0,-2.29167 H 171.222 V 112.508 h -4.584 V 0 l 2.292,2.29167 H 0 Z m 182.68,110.21667 -13.75,27.5 -13.75,-27.5 z"
       transform="matrix(-1,0,0,1,457.43,1689.5)"
       id="path1934" /><path
       d="m 853.5,1687.21 h 172 v 114.8 h -4.58 V 1689.5 l 2.29,2.29 H 853.5 Z m 183.46,110.21 -13.75,27.5 -13.75,-27.5 z"
       id="path1936" /><text
       font-family="'Arial Narrow', 'Arial Narrow_MSFontService', sans-serif"
       font-weight="700"
       font-stretch="condensed"
       font-size="41px"
       transform="translate(357.438,1663)"
       id="text1938">NO</text><text
       font-family="'Arial Narrow', 'Arial Narrow_MSFontService', sans-serif"
       font-weight="700"
       font-stretch="condensed"
       font-size="41px"
       transform="translate(908.73,1664)"
       id="text1940">YES</text><path
       d="M 0,-2.29167 H 737.839 V 344.84 l -2.292,-2.292 h 177.489 v 4.584 H 733.255 V 0 l 2.292,2.29167 H 0 Z M 908.453,331.09 l 27.5,13.75 -27.5,13.75 z"
       transform="matrix(0,1,1,0,310.5,621.5)"
       id="path1942" /><path
       d="m 63.5001,93.9998 c 0,-15.1878 12.3122,-27.5 27.5,-27.5 H 531 c 15.188,0 27.5,12.3122 27.5,27.5 V 204 c 0,15.188 -12.312,27.5 -27.5,27.5 H 91.0001 c -15.1878,0 -27.5,-12.312 -27.5,-27.5 z"
       stroke="#000000"
       stroke-width="4.58333"
       stroke-miterlimit="8"
       fill="#ffffff"
       fill-rule="evenodd"
       id="path1944" /><text
       font-family="Arial, Arial_MSFontService, sans-serif"
       font-style="italic"
       font-weight="400"
       font-size="37px"
       transform="translate(258.856,118)"
       id="text1946">Select </text><text
       font-family="Arial, Arial_MSFontService, sans-serif"
       font-style="italic"
       font-weight="400"
       font-size="37px"
       transform="translate(229.065,162)"
       id="text1948">Operating</text><text
       font-family="Arial, Arial_MSFontService, sans-serif"
       font-style="italic"
       font-weight="400"
       font-size="37px"
       transform="translate(264.013,206)"
       id="text1950">Mode</text><path
       d="m 735.791,837.429 4.216,136.414 -4.581,0.141 -4.217,-136.413 z m 15.528,131.479 -12.894,27.911 -14.593,-27.062 z"
       id="path1952" /><text
       font-family="'Arial Narrow', 'Arial Narrow_MSFontService', sans-serif"
       font-weight="700"
       font-stretch="condensed"
       font-size="41px"
       transform="translate(761.297,933)"
       id="text1954">YES</text><rect
       x="572.5"
       y="997.5"
       width="330"
       height="165"
       stroke="#000000"
       stroke-width="4.58333"
       stroke-miterlimit="8"
       fill="#ffffff"
       id="rect1956" /><text
       font-family="Arial, Arial_MSFontService, sans-serif"
       font-weight="400"
       font-size="37px"
       transform="translate(665.853,1071)"
       id="text1958">SELECT</text><text
       font-family="Arial, Arial_MSFontService, sans-serif"
       font-weight="700"
       font-size="37px"
       transform="translate(613.992,1115)"
       id="text1960">EMPTY </text><text
       font-family="Arial, Arial_MSFontService, sans-serif"
       font-weight="400"
       font-size="37px"
       transform="translate(750.92,1115)"
       id="text1962">MODE</text><path
       d="m 535.5,705.5 198,-132 198,132 -198,132 z"
       stroke="#000000"
       stroke-width="4.58333"
       stroke-miterlimit="8"
       fill="#ffffff"
       fill-rule="evenodd"
       id="path1964" /><text
       font-family="Arial, Arial_MSFontService, sans-serif"
       font-weight="700"
       font-size="41px"
       transform="translate(669.511,696)"
       id="text1966">Empty</text><text
       font-family="Arial, Arial_MSFontService, sans-serif"
       font-weight="700"
       font-size="41px"
       transform="translate(623.677,746)"
       id="text1968">Depositor</text><text
       font-family="Arial, Arial_MSFontService, sans-serif"
       font-weight="700"
       font-size="41px"
       transform="translate(816.177,746)"
       id="text1970">?</text><path
       d="m 508.5,487.208 h 226.69 v 63.438 h -4.583 V 489.5 l 2.291,2.292 H 508.5 Z m 238.148,58.855 -13.75,27.5 -13.75,-27.5 z"
       id="path1972" /><text
       font-family="'Arial Narrow', 'Arial Narrow_MSFontService', sans-serif"
       font-weight="700"
       font-stretch="condensed"
       font-size="41px"
       transform="translate(591.536,465)"
       id="text1974">NO</text><path
       d="m 457.5,1689.5 198,-132 198,132 -198,132 z"
       stroke="#000000"
       stroke-width="4.58333"
       stroke-miterlimit="8"
       fill="#ffffff"
       fill-rule="evenodd"
       id="path1976" /><text
       font-family="Arial, Arial_MSFontService, sans-serif"
       font-weight="700"
       font-size="41px"
       transform="translate(558.723,1680)"
       id="text1978">Depositor</text><text
       font-family="Arial, Arial_MSFontService, sans-serif"
       font-weight="700"
       font-size="41px"
       transform="translate(572.473,1730)"
       id="text1980">Primed?</text><path
       d="m 931.5,703.208 h 246.07 v 47.419 h -4.58 V 705.5 l 2.29,2.292 H 931.5 Z m 257.53,42.836 -13.75,27.5 -13.75,-27.5 z"
       id="path1982" /><text
       font-family="'Arial Narrow', 'Arial Narrow_MSFontService', sans-serif"
       font-weight="700"
       font-stretch="condensed"
       font-size="41px"
       transform="translate(1033.32,675)"
       id="text1984">NO</text><path
       d="m 1176.79,1037.43 4.22,136.41 -4.58,0.14 -4.22,-136.41 z m 15.53,131.48 -12.9,27.91 -14.59,-27.06 z"
       id="path1986" /><text
       font-family="'Arial Narrow', 'Arial Narrow_MSFontService', sans-serif"
       font-weight="700"
       font-stretch="condensed"
       font-size="41px"
       transform="translate(1203.08,1133)"
       id="text1988">YES</text><rect
       x="1014.5"
       y="1197.5"
       width="330"
       height="165"
       stroke="#000000"
       stroke-width="4.58333"
       stroke-miterlimit="8"
       fill="#ffffff"
       id="rect1990" /><text
       font-family="Arial, Arial_MSFontService, sans-serif"
       font-weight="400"
       font-size="37px"
       transform="translate(1107.62,1249)"
       id="text1992">SELECT</text><text
       font-family="Arial, Arial_MSFontService, sans-serif"
       font-weight="700"
       font-size="37px"
       transform="translate(1103.61,1293)"
       id="text1994">BYPASS </text><text
       font-family="Arial, Arial_MSFontService, sans-serif"
       font-weight="400"
       font-size="37px"
       transform="translate(1124.24,1337)"
       id="text1996">MODE</text><path
       d="m 976.5,905.5 198,-132 198,132 -198,132 z"
       stroke="#000000"
       stroke-width="4.58333"
       stroke-miterlimit="8"
       fill="#ffffff"
       fill-rule="evenodd"
       id="path1998" /><text
       font-family="Arial, Arial_MSFontService, sans-serif"
       font-weight="700"
       font-size="41px"
       transform="translate(1100.98,896)"
       id="text2000">Bypass </text><text
       font-family="Arial, Arial_MSFontService, sans-serif"
       font-weight="700"
       font-size="41px"
       transform="translate(1065.46,946)"
       id="text2002">Depositor</text><text
       font-family="Arial, Arial_MSFontService, sans-serif"
       font-weight="700"
       font-size="41px"
       transform="translate(1257.96,946)"
       id="text2004">?</text><path
       d="m 312.792,231.5 v 103.616 h -4.583 L 308.208,231.5 Z m 11.458,99.033 -13.75,27.5 -13.75,-27.5 z"
       id="path2006" /><path
       d="M 467.5,287.496 496.496,258.5 h 107.008 l 28.996,28.996 v 41.008 L 603.504,357.5 H 496.496 L 467.5,328.504 Z"
       stroke="#000000"
       stroke-width="6.875"
       stroke-miterlimit="8"
       fill="#ffffff"
       fill-rule="evenodd"
       id="path2008" /><text
       font-family="Arial, Arial_MSFontService, sans-serif"
       font-weight="700"
       font-size="37px"
       transform="translate(539.07,321)"
       id="text2010">1</text><path
       d="M 830.5,472.496 859.496,443.5 h 107.008 l 28.996,28.996 v 41.008 L 966.504,542.5 H 859.496 L 830.5,513.504 Z"
       stroke="#000000"
       stroke-width="6.875"
       stroke-miterlimit="8"
       fill="#ffffff"
       fill-rule="evenodd"
       id="path2012" /><text
       font-family="Arial, Arial_MSFontService, sans-serif"
       font-weight="700"
       font-size="37px"
       transform="translate(902.151,506)"
       id="text2014">2</text><path
       d="m 1264.5,687.496 29,-28.996 h 107 l 29,28.996 v 41.008 l -29,28.996 h -107 l -29,-28.996 z"
       stroke="#000000"
       stroke-width="6.875"
       stroke-miterlimit="8"
       fill="#ffffff"
       fill-rule="evenodd"
       id="path2016" /><text
       font-family="Arial, Arial_MSFontService, sans-serif"
       font-weight="700"
       font-size="37px"
       transform="translate(1336.02,721)"
       id="text2018">3</text></g></svg>

<svg width="1372" height="1928" xmlns="http://www.w3.org/2000/svg" xmlns:xlink="http://www.w3.org/1999/xlink" xml:space="preserve" overflow="hidden"><g transform="translate(-61 -64)"><path d="M112.5 489.5 310.5 357.5 508.5 489.5 310.5 621.5Z" stroke="#000000" stroke-width="4.58333" stroke-miterlimit="8" fill="#FFFFFF" fill-rule="evenodd"/><text font-family="Arial,Arial_MSFontService,sans-serif" font-weight="700" font-size="41" transform="matrix(1 0 0 1 270.029 480)">Run</text><text font-family="Arial,Arial_MSFontService,sans-serif" font-weight="700" font-size="41" transform="matrix(1 0 0 1 188.675 530)">Production?</text><text font-family="Arial Narrow,Arial Narrow_MSFontService,sans-serif" font-weight="700" font-stretch="condensed" font-size="41" transform="matrix(1 0 0 1 337.027 678)">YES</text><rect x="123.5" y="1824.5" width="330" height="165" stroke="#000000" stroke-width="4.58333" stroke-miterlimit="8" fill="#FFFFFF"/><text font-family="Arial,Arial_MSFontService,sans-serif" font-weight="400" font-size="37" transform="matrix(1 0 0 1 216.439 1899)">SELECT</text><text font-family="Arial,Arial_MSFontService,sans-serif" font-weight="700" font-size="37" transform="matrix(1 0 0 1 169.735 1943)">PRIME </text><text font-family="Arial,Arial_MSFontService,sans-serif" font-weight="400" font-size="37" transform="matrix(1 0 0 1 296.35 1943)">MODE</text><rect x="858.5" y="1824.5" width="330" height="165" stroke="#000000" stroke-width="4.58333" stroke-miterlimit="8" fill="#FFFFFF"/><text font-family="Arial,Arial_MSFontService,sans-serif" font-weight="400" font-size="37" transform="matrix(1 0 0 1 951.066 1899)">SELECT</text><text font-family="Arial,Arial_MSFontService,sans-serif" font-weight="700" font-size="37" transform="matrix(1 0 0 1 922.993 1943)">RUN </text><text font-family="Arial,Arial_MSFontService,sans-serif" font-weight="400" font-size="37" transform="matrix(1 0 0 1 1012.37 1943)">MODE</text><path d="M0-2.29167 171.222-2.29167 171.222 112.508 166.638 112.508 166.638 0 168.93 2.29167 0 2.29167ZM182.68 107.925 168.93 135.425 155.18 107.925Z" transform="matrix(-1 1.22465e-16 1.22465e-16 1 457.43 1689.5)"/><path d="M853.5 1687.21 1025.5 1687.21 1025.5 1802.01 1020.92 1802.01 1020.92 1689.5 1023.21 1691.79 853.5 1691.79ZM1036.96 1797.42 1023.21 1824.92 1009.46 1797.42Z"/><text font-family="Arial Narrow,Arial Narrow_MSFontService,sans-serif" font-weight="700" font-stretch="condensed" font-size="41" transform="matrix(1 0 0 1 357.438 1663)">NO</text><text font-family="Arial Narrow,Arial Narrow_MSFontService,sans-serif" font-weight="700" font-stretch="condensed" font-size="41" transform="matrix(1 0 0 1 908.73 1664)">YES</text><path d="M0-2.29167 737.839-2.29167 737.839 344.84 735.547 342.548 913.036 342.548 913.036 347.132 733.255 347.132 733.255 0 735.547 2.29167 0 2.29167ZM908.453 331.09 935.953 344.84 908.453 358.59Z" transform="matrix(1.83697e-16 1 1 -1.83697e-16 310.5 621.5)"/><path d="M63.5001 93.9998C63.5001 78.812 75.8123 66.4998 91.0001 66.4998L531 66.4998C546.188 66.4998 558.5 78.812 558.5 93.9998L558.5 204C558.5 219.188 546.188 231.5 531 231.5L91.0001 231.5C75.8123 231.5 63.5001 219.188 63.5001 204Z" stroke="#000000" stroke-width="4.58333" stroke-miterlimit="8" fill="#FFFFFF" fill-rule="evenodd"/><text font-family="Arial,Arial_MSFontService,sans-serif" font-style="italic" font-weight="400" font-size="37" transform="matrix(1 0 0 1 258.856 118)">Select </text><text font-family="Arial,Arial_MSFontService,sans-serif" font-style="italic" font-weight="400" font-size="37" transform="matrix(1 0 0 1 229.065 162)">Operating</text><text font-family="Arial,Arial_MSFontService,sans-serif" font-style="italic" font-weight="400" font-size="37" transform="matrix(1 0 0 1 264.013 206)">Mode</text><path d="M735.791 837.429 740.007 973.843 735.426 973.984 731.209 837.571ZM751.319 968.908 738.425 996.819 723.832 969.757Z"/><text font-family="Arial Narrow,Arial Narrow_MSFontService,sans-serif" font-weight="700" font-stretch="condensed" font-size="41" transform="matrix(1 0 0 1 761.297 933)">YES</text><rect x="572.5" y="997.5" width="330" height="165" stroke="#000000" stroke-width="4.58333" stroke-miterlimit="8" fill="#FFFFFF"/><text font-family="Arial,Arial_MSFontService,sans-serif" font-weight="400" font-size="37" transform="matrix(1 0 0 1 665.853 1071)">SELECT</text><text font-family="Arial,Arial_MSFontService,sans-serif" font-weight="700" font-size="37" transform="matrix(1 0 0 1 613.992 1115)">EMPTY </text><text font-family="Arial,Arial_MSFontService,sans-serif" font-weight="400" font-size="37" transform="matrix(1 0 0 1 750.92 1115)">MODE</text><path d="M535.5 705.5 733.5 573.5 931.5 705.5 733.5 837.5Z" stroke="#000000" stroke-width="4.58333" stroke-miterlimit="8" fill="#FFFFFF" fill-rule="evenodd"/><text font-family="Arial,Arial_MSFontService,sans-serif" font-weight="700" font-size="41" transform="matrix(1 0 0 1 669.511 696)">Empty</text><text font-family="Arial,Arial_MSFontService,sans-serif" font-weight="700" font-size="41" transform="matrix(1 0 0 1 623.677 746)">Depositor</text><text font-family="Arial,Arial_MSFontService,sans-serif" font-weight="700" font-size="41" transform="matrix(1 0 0 1 816.177 746)">?</text><path d="M508.5 487.208 735.19 487.208 735.19 550.646 730.607 550.646 730.607 489.5 732.898 491.792 508.5 491.792ZM746.648 546.063 732.898 573.563 719.148 546.063Z"/><text font-family="Arial Narrow,Arial Narrow_MSFontService,sans-serif" font-weight="700" font-stretch="condensed" font-size="41" transform="matrix(1 0 0 1 591.536 465)">NO</text><path d="M457.5 1689.5 655.5 1557.5 853.5 1689.5 655.5 1821.5Z" stroke="#000000" stroke-width="4.58333" stroke-miterlimit="8" fill="#FFFFFF" fill-rule="evenodd"/><text font-family="Arial,Arial_MSFontService,sans-serif" font-weight="700" font-size="41" transform="matrix(1 0 0 1 558.723 1680)">Depositor</text><text font-family="Arial,Arial_MSFontService,sans-serif" font-weight="700" font-size="41" transform="matrix(1 0 0 1 572.473 1730)">Primed?</text><path d="M931.5 703.208 1177.57 703.208 1177.57 750.627 1172.99 750.627 1172.99 705.5 1175.28 707.792 931.5 707.792ZM1189.03 746.044 1175.28 773.544 1161.53 746.044Z"/><text font-family="Arial Narrow,Arial Narrow_MSFontService,sans-serif" font-weight="700" font-stretch="condensed" font-size="41" transform="matrix(1 0 0 1 1033.32 675)">NO</text><path d="M1176.79 1037.43 1181.01 1173.84 1176.43 1173.98 1172.21 1037.57ZM1192.32 1168.91 1179.42 1196.82 1164.83 1169.76Z"/><text font-family="Arial Narrow,Arial Narrow_MSFontService,sans-serif" font-weight="700" font-stretch="condensed" font-size="41" transform="matrix(1 0 0 1 1203.08 1133)">YES</text><rect x="1014.5" y="1197.5" width="330" height="165" stroke="#000000" stroke-width="4.58333" stroke-miterlimit="8" fill="#FFFFFF"/><text font-family="Arial,Arial_MSFontService,sans-serif" font-weight="400" font-size="37" transform="matrix(1 0 0 1 1107.62 1249)">SELECT</text><text font-family="Arial,Arial_MSFontService,sans-serif" font-weight="700" font-size="37" transform="matrix(1 0 0 1 1103.61 1293)">BYPASS </text><text font-family="Arial,Arial_MSFontService,sans-serif" font-weight="400" font-size="37" transform="matrix(1 0 0 1 1124.24 1337)">MODE</text><path d="M976.5 905.5 1174.5 773.5 1372.5 905.5 1174.5 1037.5Z" stroke="#000000" stroke-width="4.58333" stroke-miterlimit="8" fill="#FFFFFF" fill-rule="evenodd"/><text font-family="Arial,Arial_MSFontService,sans-serif" font-weight="700" font-size="41" transform="matrix(1 0 0 1 1100.98 896)">Bypass </text><text font-family="Arial,Arial_MSFontService,sans-serif" font-weight="700" font-size="41" transform="matrix(1 0 0 1 1065.46 946)">Depositor</text><text font-family="Arial,Arial_MSFontService,sans-serif" font-weight="700" font-size="41" transform="matrix(1 0 0 1 1257.96 946)">?</text><path d="M312.792 231.5 312.792 335.116 308.209 335.116 308.208 231.5ZM324.25 330.533 310.5 358.033 296.75 330.533Z"/><path d="M467.5 287.496 496.496 258.5 603.504 258.5 632.5 287.496 632.5 328.504 603.504 357.5 496.496 357.5 467.5 328.504Z" stroke="#000000" stroke-width="6.875" stroke-miterlimit="8" fill="#FFFFFF" fill-rule="evenodd"/><text font-family="Arial,Arial_MSFontService,sans-serif" font-weight="700" font-size="37" transform="matrix(1 0 0 1 539.07 321)">1</text><path d="M830.5 472.496 859.496 443.5 966.504 443.5 995.5 472.496 995.5 513.504 966.504 542.5 859.496 542.5 830.5 513.504Z" stroke="#000000" stroke-width="6.875" stroke-miterlimit="8" fill="#FFFFFF" fill-rule="evenodd"/><text font-family="Arial,Arial_MSFontService,sans-serif" font-weight="700" font-size="37" transform="matrix(1 0 0 1 902.151 506)">2</text><path d="M1264.5 687.496 1293.5 658.5 1400.5 658.5 1429.5 687.496 1429.5 728.504 1400.5 757.5 1293.5 757.5 1264.5 728.504Z" stroke="#000000" stroke-width="6.875" stroke-miterlimit="8" fill="#FFFFFF" fill-rule="evenodd"/><text font-family="Arial,Arial_MSFontService,sans-serif" font-weight="700" font-size="37" transform="matrix(1 0 0 1 1336.02 721)">3</text></g></svg>
